app/img/product/ic_platform.svg

<svg width="144" height="122" viewBox="0 0 144 122" fill="none" xmlns="http://www.w3.org/2000/svg">
    <g filter="url(#filter0_i)">
        <rect y="0.190674" width="116.076" height="103.034" rx="10" fill="url(#paint0_linear)"/>
    </g>
    <rect x="0.5" y="0.690674" width="115.076" height="102.034" rx="9.5" stroke="#FAFAFA" stroke-opacity="0.1"/>
    <rect x="11.7385" y="16.3101" width="65.2112" height="10.3147" rx="5.15735" fill="#131DAA" fill-opacity="0.37"/>
    <rect x="12.2385" y="16.8101" width="64.2112" height="9.3147" rx="4.65735" stroke="#80FF9F" stroke-opacity="0.14"/>
    <rect x="92.5996" y="16.3098" width="13.0422" height="10.3147" rx="5.15735" fill="#022AF0" fill-opacity="0.36"/>
    <rect x="93.0996" y="16.8098" width="12.0422" height="9.3147" rx="4.65735" stroke="#80FF9F" stroke-opacity="0.14"/>
    <rect x="11.7378" y="43.3857" width="50.8647" height="43.8375" rx="5" fill="#0A1193" fill-opacity="0.4"/>
    <rect x="12.2378" y="43.8857" width="49.8647" height="42.8375" rx="4.5" stroke="#80FF9F" stroke-opacity="0.14"/>
    <rect width="41.7352" height="16.7614" rx="5" transform="matrix(-1 0 0 1 109.554 43.3857)" fill="#131DAA"
          fill-opacity="0.12"/>
    <rect x="-0.5" y="0.5" width="40.7352" height="15.7614" rx="4.5" transform="matrix(-1 0 0 1 108.554 43.3857)"
          stroke="#80FF9F" stroke-opacity="0.14"/>
    <rect width="41.7352" height="16.7614" rx="5" transform="matrix(-1 0 0 1 109.554 65.3047)" fill="#131DAA"
          fill-opacity="0.23"/>
    <rect x="-0.5" y="0.5" width="40.7352" height="15.7614" rx="4.5" transform="matrix(-1 0 0 1 108.554 65.3047)"
          stroke="#80FF9F" stroke-opacity="0.14"/>
    <path fill-rule="evenodd" clip-rule="evenodd"
          d="M121.399 104.121C121.831 104.549 122.398 104.762 122.965 104.762C123.531 104.762 124.098 104.549 124.53 104.121C125.395 103.266 125.395 101.881 124.53 101.026L115.674 92.2708C115.571 92.1691 115.458 92.0771 115.335 91.9972L115.161 91.9031L114.954 91.7958L114.727 91.7258L114.541 91.6722C114.255 91.6152 113.96 91.6152 113.673 91.6722L113.487 91.7258L113.26 91.7958L113.052 91.9042L112.88 91.9972C112.758 92.0771 112.644 92.1691 112.541 92.2708L103.685 101.026C102.82 101.881 102.82 103.266 103.685 104.121C104.117 104.549 104.683 104.762 105.25 104.762C105.817 104.762 106.384 104.549 106.816 104.121L111.893 99.1017V118.991C111.893 120.199 112.885 121.18 114.107 121.18C115.33 121.18 116.322 120.199 116.322 118.991V99.1017L121.399 104.121Z"
          fill="url(#paint1_linear)"/>
    <path fill-rule="evenodd" clip-rule="evenodd"
          d="M134.96 87.2351C134.808 87.2154 132.24 86.8684 129.773 87.2372L129.606 87.2504C129.068 87.2504 128.596 86.8629 128.513 86.32C128.421 85.7224 128.837 85.1653 129.441 85.0745C131.136 84.8195 132.83 84.86 133.962 84.9388C133.22 76.4531 126.097 69.7383 117.523 69.7383C112.322 69.7383 107.096 72.3432 103.921 76.4465C106.085 78.2546 107.464 80.9526 107.464 83.9669C107.464 84.5721 106.969 85.0614 106.357 85.0614C105.745 85.0614 105.25 84.5721 105.25 83.9669C105.25 81.2722 103.832 78.9015 101.697 77.5355C101.446 77.3757 101.186 77.2324 100.92 77.1021L100.689 76.9916C100.386 76.8569 100.08 76.7366 99.7641 76.6402L99.6467 76.6107C99.36 76.5286 99.0688 76.4662 98.7732 76.4181L98.5152 76.3786C98.1798 76.3349 97.8421 76.3053 97.5 76.3053C93.2275 76.3053 89.75 79.7432 89.75 83.9669L89.7633 84.2339L89.7755 84.4638L89.7666 84.6389C89.7589 84.7812 89.75 84.9224 89.75 85.0614V85.7509L89.1222 86.0475C84.9948 88.0045 82 92.7229 82 97.2695C82 103.816 87.3863 109.141 94.007 109.141H109.71V104.387L108.413 105.669C107.548 106.524 106.415 106.951 105.281 106.951C104.147 106.951 103.015 106.524 102.15 105.669C100.421 103.96 100.421 101.187 102.15 99.4782L111.007 90.7222C111.213 90.5186 111.44 90.3369 111.682 90.176C111.791 90.1048 111.908 90.0556 112.022 89.9943C112.162 89.9177 112.297 89.8345 112.445 89.7743C112.591 89.7141 112.743 89.6802 112.895 89.6364C113.02 89.6003 113.141 89.5521 113.271 89.5259C113.844 89.4131 114.434 89.4131 115.006 89.5259C115.137 89.5521 115.256 89.6003 115.383 89.6364C115.533 89.6802 115.686 89.7141 115.832 89.7743C115.98 89.8356 116.116 89.9177 116.255 89.9943C116.368 90.0556 116.486 90.1048 116.595 90.176C116.837 90.3369 117.064 90.5186 117.27 90.7222L126.127 99.4782C127.857 101.187 127.857 103.96 126.127 105.669C125.263 106.524 124.129 106.951 122.995 106.951C121.862 106.951 120.729 106.524 119.864 105.669L118.567 104.387V109.141H121.141L121.332 109.131L121.553 109.119L121.852 109.131L122.044 109.141H132.898C139.019 109.141 144 104.216 144 98.1648C144 92.8991 140.115 88.2048 134.96 87.2351Z"
          fill="url(#paint2_linear)"/>
    <defs>
        <filter id="filter0_i" x="0" y="0.190674" width="116.076" height="107.034" filterUnits="userSpaceOnUse"
                color-interpolation-filters="sRGB">
            <feFlood flood-opacity="0" result="BackgroundImageFix"/>
            <feBlend mode="normal" in="SourceGraphic" in2="BackgroundImageFix" result="shape"/>
            <feColorMatrix in="SourceAlpha" type="matrix" values="0 0 0 0 0 0 0 0 0 0 0 0 0 0 0 0 0 0 127 0"
                           result="hardAlpha"/>
            <feOffset dy="4"/>
            <feGaussianBlur stdDeviation="15"/>
            <feComposite in2="hardAlpha" operator="arithmetic" k2="-1" k3="1"/>
            <feColorMatrix type="matrix" values="0 0 0 0 0.5 0 0 0 0 1 0 0 0 0 0.625065 0 0 0 1 0"/>
            <feBlend mode="normal" in2="shape" result="effect1_innerShadow"/>
        </filter>
        <linearGradient id="paint0_linear" x1="-97.2424" y1="-72.4529" x2="121.841" y2="112.039"
                        gradientUnits="userSpaceOnUse">
            <stop stop-color="#0125DA"/>
            <stop offset="1" stop-color="#0125DA" stop-opacity="0"/>
        </linearGradient>
        <linearGradient id="paint1_linear" x1="75.9959" y1="59.8456" x2="136.428" y2="113.459"
                        gradientUnits="userSpaceOnUse">
            <stop stop-color="#7DFCA6"/>
            <stop offset="1" stop-color="#60D8DF"/>
        </linearGradient>
        <linearGradient id="paint2_linear" x1="75.9959" y1="59.8456" x2="136.428" y2="113.459"
                        gradientUnits="userSpaceOnUse">
            <stop stop-color="#7DFCA6"/>
            <stop offset="1" stop-color="#60D8DF"/>
        </linearGradient>
    </defs>
</svg>

<svg width="144" height="122" fill="none" xmlns="http://www.w3.org/2000/svg"><g filter="url(#a)"><rect y=".191" width="116.076" height="103.034" rx="10" fill="url(#b)"/></g><rect x=".5" y=".691" width="115.076" height="102.034" rx="9.5" stroke="#FAFAFA" stroke-opacity=".1"/><rect x="11.739" y="16.31" width="65.211" height="10.315" rx="5.157" fill="#131DAA" fill-opacity=".37"/><rect x="12.239" y="16.81" width="64.211" height="9.315" rx="4.657" stroke="#80FF9F" stroke-opacity=".14"/><rect x="92.6" y="16.31" width="13.042" height="10.315" rx="5.157" fill="#022AF0" fill-opacity=".36"/><rect x="93.1" y="16.81" width="12.042" height="9.315" rx="4.657" stroke="#80FF9F" stroke-opacity=".14"/><rect x="11.738" y="43.386" width="50.865" height="43.837" rx="5" fill="#0A1193" fill-opacity=".4"/><rect x="12.238" y="43.886" width="49.865" height="42.837" rx="4.5" stroke="#80FF9F" stroke-opacity=".14"/><rect width="41.735" height="16.761" rx="5" transform="matrix(-1 0 0 1 109.554 43.386)" fill="#131DAA" fill-opacity=".12"/><rect x="-.5" y=".5" width="40.735" height="15.761" rx="4.5" transform="matrix(-1 0 0 1 108.554 43.386)" stroke="#80FF9F" stroke-opacity=".14"/><rect width="41.735" height="16.761" rx="5" transform="matrix(-1 0 0 1 109.554 65.305)" fill="#131DAA" fill-opacity=".23"/><rect x="-.5" y=".5" width="40.735" height="15.761" rx="4.5" transform="matrix(-1 0 0 1 108.554 65.305)" stroke="#80FF9F" stroke-opacity=".14"/><path fill-rule="evenodd" clip-rule="evenodd" d="M121.399 104.121c.432.428.999.641 1.566.641.566 0 1.133-.213 1.565-.641a2.17 2.17 0 0 0 0-3.095l-8.856-8.755a2.148 2.148 0 0 0-.339-.274l-.174-.094-.207-.107-.227-.07-.186-.054a2.224 2.224 0 0 0-.868 0l-.186.054-.227.07-.208.108-.172.093c-.122.08-.236.172-.339.274l-8.856 8.755a2.17 2.17 0 0 0 0 3.095c.432.428.998.641 1.565.641s1.134-.213 1.566-.641l5.077-5.02v19.89c0 1.208.992 2.189 2.214 2.189 1.223 0 2.215-.981 2.215-2.189v-19.89l5.077 5.02Z" fill="url(#c)"/><path fill-rule="evenodd" clip-rule="evenodd" d="M134.96 87.235c-.152-.02-2.72-.367-5.187.002l-.167.013c-.538 0-1.01-.387-1.093-.93a1.095 1.095 0 0 1 .928-1.245c1.695-.255 3.389-.215 4.521-.136-.742-8.486-7.865-15.2-16.439-15.2-5.201 0-10.427 2.604-13.602 6.707 2.164 1.809 3.543 4.507 3.543 7.52a1.1 1.1 0 0 1-1.107 1.095 1.1 1.1 0 0 1-1.107-1.094c0-2.695-1.418-5.066-3.553-6.431a7.985 7.985 0 0 0-.777-.434l-.231-.11a8.088 8.088 0 0 0-.925-.352l-.117-.03a7.6 7.6 0 0 0-.874-.192l-.258-.04a7.844 7.844 0 0 0-1.015-.073c-4.272 0-7.75 3.438-7.75 7.662l.013.267.012.23-.008.175c-.008.142-.017.283-.017.422v.69l-.628.296C84.995 88.004 82 92.724 82 97.27c0 6.547 5.386 11.872 12.007 11.872h15.703v-4.754l-1.297 1.282a4.44 4.44 0 0 1-3.132 1.282 4.438 4.438 0 0 1-3.131-1.282 4.343 4.343 0 0 1 0-6.19l8.857-8.757c.206-.203.433-.385.675-.546.109-.071.226-.12.34-.182.14-.076.275-.16.423-.22.146-.06.298-.094.45-.138.125-.036.246-.084.376-.11a4.49 4.49 0 0 1 1.735 0c.131.026.25.074.377.11.15.044.303.078.449.138.148.062.284.144.423.22.113.062.231.11.34.182.242.16.469.343.675.546l8.857 8.756a4.341 4.341 0 0 1 0 6.191 4.439 4.439 0 0 1-3.132 1.282 4.44 4.44 0 0 1-3.131-1.282l-1.297-1.282v4.754h2.574l.191-.01.221-.012.299.012.192.01h10.854c6.121 0 11.102-4.925 11.102-10.976 0-5.266-3.885-9.96-9.04-10.93Z" fill="url(#d)"/><defs><linearGradient id="b" x1="-97.242" y1="-72.453" x2="121.841" y2="112.039" gradientUnits="userSpaceOnUse"><stop stop-color="#0125DA"/><stop offset="1" stop-color="#0125DA" stop-opacity="0"/></linearGradient><linearGradient id="c" x1="75.996" y1="59.846" x2="136.428" y2="113.459" gradientUnits="userSpaceOnUse"><stop stop-color="#7DFCA6"/><stop offset="1" stop-color="#60D8DF"/></linearGradient><linearGradient id="d" x1="75.996" y1="59.846" x2="136.428" y2="113.459" gradientUnits="userSpaceOnUse"><stop stop-color="#7DFCA6"/><stop offset="1" stop-color="#60D8DF"/></linearGradient><filter id="a" x="0" y=".191" width="116.076" height="107.034" filterUnits="userSpaceOnUse" color-interpolation-filters="sRGB"><feFlood flood-opacity="0" result="BackgroundImageFix"/><feBlend in="SourceGraphic" in2="BackgroundImageFix" result="shape"/><feColorMatrix in="SourceAlpha" values="0 0 0 0 0 0 0 0 0 0 0 0 0 0 0 0 0 0 127 0" result="hardAlpha"/><feOffset dy="4"/><feGaussianBlur stdDeviation="15"/><feComposite in2="hardAlpha" operator="arithmetic" k2="-1" k3="1"/><feColorMatrix values="0 0 0 0 0.5 0 0 0 0 1 0 0 0 0 0.625065 0 0 0 1 0"/><feBlend in2="shape" result="effect1_innerShadow"/></filter></defs></svg>
